X: 20421
Q: "Adagio"
M: 3/8
L: 1/16
K: G
[| !p!\
(G2B2c2) | ("_>"d4B2) | (c4d2) | ("_>"B4G2) |\
(G2B2c2) | ("_>"d4B2) | "_>"c4c2 | HB4z2 |\
(d4B2) | c4A2 |\
(G2A2G2) | {B}A4G2 |
{A}G4g2 | (d4B2) | {d}c4B2 | G4(AB) |\


